X:1
T:Title
%%score { 1 | 2 }
L:1/8
M:4/4
K:F
V:1 treble nm="Grand Piano"
V:2 bass 
V:1
 z4 z2[Q:1/4=100] c2 | B3 A G2 F2 | F4 E2 d2 | [Ec]3 [EB] A2 G2 | c6 c2 | B3 A [CG]2 [CF]2 | %6
[M:3/4] [CE]4 [B,D]2 |[M:1/4] [Fd]2 |[M:4/4] [Fc]2 [A,CF]2 [CEA]3 [B,EG] | [A,F]6 [A,CF]2 | %10
 [A,CE]2 [A,EA]2 [A,EA]2 [A,EA]2 | [A,FA]4 [A,EG]2 F2 | E2 A2 =B3 E |[M:3/4] c6 |[M:1/4] c2 | %15
[M:4/4] c2 A2 c2 A2 | A4 G2 [CE]2 | [CA]2 [CD]2 [=B,G]3 [B,A] |[M:3/4] G6 |[M:1/4] c2 | %20
[M:4/4] B3 A G2 F2 |[M:3/4] F4 E2 |[M:1/4] [Ed]2 |[M:4/4] [Ec]3 [EB] [EA]2 G2 | c6 c2 | %25
 f3 e d2 [Ac]2 | B2 A2 G2 [F_Ad]2 | [FAc]2 [A,F]2 [CEA]3 [B,EG] |[M:3/4] [A,F]6 |] %29
V:2
 z4 z2 [C,C]2 | [F,C]3 [F,C] [A,C]2 [A,C]2 | [G,B,C]4 [G,B,C]2 [G,B,E]2 | %3
 [C,B,]3 [C,G,][K:treble] [CE]2 [B,CE]2 | [A,CF]6 [A,CF]2 | %5
 [F,CF]3[K:bass] [F,C] [A,,F,]2 [A,,F,]2 |[M:3/4] [B,,F,]4 [B,,F,]2 |[M:1/4] [=B,,_A,]2 | %8
[M:4/4] [C,A,]2 C,2 C,3 C, | F,6 F,2 | C,2 C,2 C,2 C,2 | D,4 D,2 [D,A,C]2 | %12
 [E,A,C]2 [E,A,C]2 [E,_A,D]3 [E,A,D] |[M:3/4] [A,C]6 |[M:1/4] [A,E]2 | %15
[M:4/4] [^F,A,_E]2 [F,CE]2 [F,A,E]2 [F,CE]2 | [G,CE]4 [G,CE]2 [G,,G,]2 | %17
 [G,,^F,]2 [G,,F,]2 [G,,=F,]3 [G,,F,] |[M:3/4] [C,E,C]6 |[M:1/4] [C,B,C]2 | %20
[M:4/4] [F,DF]3 [F,C] [F,B,C]2 [F,A,C]2 |[M:3/4] [G,B,C]4 [G,B,C]2 |[M:1/4] [C,B,]2 | %23
[M:4/4] [C,B,]3 [C,G,] [C,C]2[K:treble] [B,CE]2 | [A,CF]6 [G,B,E]2 | %25
 [F,A,F]3 [F,A,F] [B,F]2 [^F,_E]2 | [G,DG]2 [A,C^F]2[K:bass] B,2 =B,2 | C2 C,2 C,3 C, | %28
[M:3/4] F,6 |] %29

